www/assets/icons/battery_alert.svg

<svg xmlns="http://www.w3.org/2000/svg" width="24" height="24" viewBox="0 0 24 24" fill='currentColor'><path d="M15.67 4H14V2h-4v2H8.33C7.6 4 7 4.6 7 5.33v15.33C7 21.4 7.6 22 8.33 22h7.33c.74 0 1.34-.6 1.34-1.33V5.33C17 4.6 16.4 4 15.67 4M13 18h-2v-2h2zm0-4h-2V9h2z"/></svg>

<svg width="24" height="24" viewBox="0 0 24 24" xmlns="http://www.w3.org/2000/svg" fill='currentColor'><path d="M15.67 4H14V2H10V4H8.33C7.6 4 7 4.6 7 5.33V20.66C7 21.4 7.6 22 8.33 22H15.66C16.4 22 17 21.4 17 20.67V5.33C17 4.6 16.4 4 15.67 4ZM13 18H11V16H13V18ZM13 14H11V9H13V14Z"/></svg>
